X: 772
T: Fang shuang
L: 1/8
M: 2/4
K: G
d2d2 [I:setbarnb 1]| 
e d B A | 
G F E G | 
A3B | 
d2d2 | 
e d B A | 
G F E G | 
A2z2 | 
A Bd2 | 
e d B A | 
G2d2 | 
G2F E | 
D D D E | 
F2A E | 
D4 |]

@@@ Tune index: 9646
